X: 519
T:Primrose Road (The)
M:4/4
L:1/8
Q:210
R:Reel
D:Cathal McConnell's 'Lough Erne's Shore'
N:Posted to the woodenflute mailing list May 2002
Z:Andrew Pickering
K:G
B2 BA GEDE|G2 BG dGBG|B2 BA GEDG|EAAG A2 GA|
B2 BA GEDE|G2 BG dGBG|B2 BA GEDG|EAAG A2 GA||
(3Bcd ef gfed|d2 gdBG G2|(3Bcd ef gfed|eaag a4|
(3Bcd ef gfed|d2 gdBG GA|B2 BA GEDG|EAAG A2 GA||

